X: 15507
T: Glenshane Pass, The
R: jig
M: 6/8
K: Gmajor
|:DGG GdB|edB G2E|DGG FGA|BcB AGE|
DGG GdB|edB G2E|DGG FGA|1 BGF G2E:|2 BGF G2A||
|:BGG ABc|B/c/dB cAF|BGG ABc|BGB AFD|
BGG AFA|BGB ABc|B/c/dB cAF|1 AGF Gdc:|2 AGF GFE||

